X: 1910
T: Two and Two
P: Miss Jeanie S. Grant's Favourite
C:Charles Grant
R:Jig (8x32)
B:RSCDS 19-10
Z:Anselm Lingnau <anselm@strathspey.org>
M:6/8
L:1/8
K:A
E|"A"A>GA "E7"B>GE|"A"A>GA "E/B"d2e|"A"cAA "E7"B>Ec|"Bm"d>F"E7"G "A"A2E|
  "A"A>GA "E7"B>GE|"A"A>GA "E/B"d2e|"A"cAA "E7"B>Ec|"Bm"d>F"E7"G "A"A2||
c/d/|"A"e>cA a>cA|e>cA "E"B>GE|"A"e>cA a>cA|"E7"b>ge "A"a2 c/d/|
  "A"e>cA a>cA|e>cA "E7"B>GE|"A"A>EC A>EC|"E7"D>BG "A"A2|]
%%center Book19/1910-Two_and_Two-AL.abc

%%sep 1 1 500
%%sep 1 1 500

